svg/u1f18e.svg

<svg viewBox="0 0 128 128" xmlns="http://www.w3.org/2000/svg">
  <g>
    <path d="M116,4H12c-4.42,0-8,3.58-8,8v104c0,4.42,3.58,8,8,8h104c4.42,0,8-3.58,8-8V12 C124,7.58,120.42,4,116,4z" fill="#CC3333"/>
    <path d="M109.7,4H11.5C7.37,4.03,4.03,7.37,4,11.5v97.9c-0.01,4.14,3.34,7.49,7.48,7.5c0.01,0,0.01,0,0.02,0 h98.1c4.14,0.01,7.49-3.34,7.5-7.48c0-0.01,0-0.01,0-0.02V11.5c0.09-4.05-3.13-7.41-7.18-7.5C109.85,4,109.77,4,109.7,4z" fill="#F44336"/>
    <path d="M39.7,12.9c0-2.3-1.6-3-10.8-2.7c-7.7,0.3-11.5,1.2-13.8,4s-2.9,8.5-3,15.3c0,4.8,0,9.3,2.5,9.3 c3.4,0,3.4-7.9,6.2-12.3C26.2,17.8,39.7,15.9,39.7,12.9z" fill="#FF8A80"/>
    <g>
      <path d="M30.32,36.87H42.2l20.62,54.89H51.4l-4.6-13.11H25.79l-4.6,13.11H9.77L30.32,36.87z M43.43,69.15 l-4.83-13.8l-1.99-6.59h-0.61L34,55.35l-4.91,13.8H43.43z" fill="#FAFAFA"/>
      <path d="M70.26,36.87h21.47c3.07,0,5.89,0.64,8.47,1.92c2.58,1.28,4.61,3.02,6.1,5.21 c1.48,2.2,2.22,4.6,2.22,7.21c0,2.76-0.68,5.15-2.03,7.17c-1.35,2.02-3.13,3.56-5.33,4.64v0.61c2.86,1.02,5.14,2.65,6.82,4.87 c1.69,2.22,2.53,4.89,2.53,8.01c0,3.02-0.81,5.69-2.42,8.01c-1.61,2.33-3.78,4.12-6.52,5.37c-2.74,1.25-5.76,1.88-9.09,1.88H70.26 V36.87z M90.96,59.26c2.25,0,4.05-0.63,5.41-1.88c1.35-1.25,2.03-2.82,2.03-4.72c0-1.84-0.65-3.39-1.96-4.64 c-1.3-1.25-3.03-1.88-5.17-1.88H80.61v13.11H90.96z M92.11,82.33c2.5,0,4.46-0.65,5.87-1.96c1.41-1.3,2.11-3,2.11-5.1 s-0.72-3.81-2.15-5.14c-1.43-1.33-3.48-1.99-6.13-1.99H80.61v14.18H92.11z" fill="#FAFAFA"/>
    </g>
  </g>
</svg>

<svg viewBox="0 0 128 128" xmlns="http://www.w3.org/2000/svg">
  <defs/>
  <path d="M116,4 L12,4 C7.58,4 4,7.58 4,12 L4,116 C4,120.42 7.58,124 12,124 L116,124 C120.42,124 124,120.42 124,116 L124,12 C124,7.58 120.42,4 116,4 Z" fill="#CC3333"/>
  <path d="M109.7,4 L11.5,4 C7.37,4.03 4.03,7.37 4,11.5 L4,109.4 C3.99,113.54 7.34,116.89 11.48,116.9 C11.49,116.9 11.49,116.9 11.5,116.9 L109.6,116.9 C113.74,116.91 117.09,113.56 117.1,109.42 C117.1,109.41 117.1,109.41 117.1,109.4 L117.1,11.5 C117.19,7.45 113.97,4.09 109.92,4 C109.85,4 109.77,4 109.7,4 Z" fill="#F44336"/>
  <path d="M39.7,12.9 C39.7,10.6 38.1,9.9 28.9,10.2 C21.2,10.5 17.4,11.4 15.1,14.2 C12.8,17 12.2,22.7 12.1,29.5 C12.1,34.3 12.1,38.8 14.6,38.8 C18,38.8 18,30.9 20.8,26.5 C26.2,17.8 39.7,15.9 39.7,12.9 Z" fill="#FF8A80"/>
  <path d="M30.32,36.87 L42.2,36.87 L62.82,91.76 L51.4,91.76 L46.8,78.65 L25.79,78.65 L21.19,91.76 L9.77,91.76 L30.32,36.87 Z M43.43,69.15 L38.6,55.35 L36.61,48.76 L36,48.76 L34,55.35 L29.09,69.15 L43.43,69.15 Z" fill="#FAFAFA"/>
  <path d="M70.26,36.87 L91.73,36.87 C94.8,36.87 97.62,37.51 100.2,38.79 C102.78,40.07 104.81,41.81 106.3,44 C107.78,46.2 108.52,48.6 108.52,51.21 C108.52,53.97 107.84,56.36 106.49,58.38 C105.14,60.4 103.36,61.94 101.16,63.02 L101.16,63.63 C104.02,64.65 106.3,66.28 107.98,68.5 C109.67,70.72 110.51,73.39 110.51,76.51 C110.51,79.53 109.7,82.2 108.09,84.52 C106.48,86.85 104.31,88.64 101.57,89.89 C98.83,91.14 95.81,91.77 92.48,91.77 L70.26,91.77 L70.26,36.87 Z M90.96,59.26 C93.21,59.26 95.01,58.63 96.37,57.38 C97.72,56.13 98.4,54.56 98.4,52.66 C98.4,50.82 97.75,49.27 96.44,48.02 C95.14,46.77 93.41,46.14 91.27,46.14 L80.61,46.14 L80.61,59.25 L90.96,59.25 Z M92.11,82.33 C94.61,82.33 96.57,81.68 97.98,80.37 C99.39,79.07 100.09,77.37 100.09,75.27 C100.09,73.17 99.37,71.46 97.94,70.13 C96.51,68.8 94.46,68.14 91.81,68.14 L80.61,68.14 L80.61,82.32 L92.11,82.32 Z" fill="#FAFAFA"/>
</svg>
